icon-themes/sifr_svg/cmd/lc_merge.svg

<svg viewBox="0 0 24 24" xmlns="http://www.w3.org/2000/svg"><g fill="#555753"><path d="m10 3v6h-6v12h10v-6h6v-12z" opacity=".35"/><path d="m9 1c-.554 0-1 .446-1 1v5h-5c-.554 0-1 .446-1 1v14c0 .554.446 1 1 1h12c.554 0 1-.446 1-1v-5h5c.554 0 1-.446 1-1v-14c0-.554-.446-1-1-1zm1 2h10v12h-4-2v2 4h-10v-12h4 2v-2z"/></g></svg>

<svg xmlns="http://www.w3.org/2000/svg" viewBox="0 0 24 24">
  <path
     style="opacity:0.35;fill:#555753"
     d="M 10 3 L 10 9 L 4 9 L 4 21 L 14 21 L 14 15 L 20 15 L 20 3 L 10 3 z "
     />
  <path
     style="fill:#555753"
     d="M 9 1 C 8.446 1 8 1.446 8 2 L 8 7 L 3 7 C 2.446 7 2 7.446 2 8 L 2 22 C 2 22.554 2.446 23 3 23 L 15 23 C 15.554 23 16 22.554 16 22 L 16 17 L 21 17 C 21.554 17 22 16.554 22 16 L 22 2 C 22 1.446 21.554 1 21 1 L 9 1 z M 10 3 L 20 3 L 20 15 L 16 15 L 14 15 L 14 17 L 14 21 L 4 21 L 4 9 L 8 9 L 10 9 L 10 7 L 10 3 z "
     />
</svg>
